X: 4
T: Farewell To Whalley Range
R: slip jig
M: 9/8
L: 1/8
K: Amaj
|:F2 c BAF F2 E |F2 c BAc fec |B3 BAB c2 A |1 B3 BAB cBA :|2 B3 BAB cef ||
|:a3 fec fec |B3 BAB cef |a3 baf afe |1 fec Bce fec :|2fec fec BAB ||


Tune 2410	Setting 15752

